X:91
T:Trip to Short's,A. JJo1.091
B:J.Johnson Choice Collection Vol 1 after c1750?
Z:vmp. Anne Wride 2015. www.village-music-project.org.uk
M:6/8
L:1/8
Q:3/8=120
K:G
D | G2A BAG | d2c Bcd | e2E d2D | cAD B2c |
dcB edc | fed gfe | d^cd AGA | D3- D2 ||
d | dcB cBA | e2E E2B | cde EFG | ABc F2A |
d2c Bcd | efg f2f | gdg TA2G | G3- G2 |]
W:The 1st Cu. Gallop down the middle and up to the Top and cast of and turn
W:Then the 2d Cu. do the same
W:The 1st Cu. cross over and half Figure and turn
W:Then Right & Left.

